packages/foundations/assets/icons/functional/images/buildings/market_28.svg

<svg width="28" height="28" viewBox="0 0 28 28" fill="none" xmlns="http://www.w3.org/2000/svg">
<g clip-path="url(#clip0_184_202)">
<path fill-rule="evenodd" clip-rule="evenodd" d="M5.2509 24.5C5.01884 24.5 4.79628 24.4078 4.63218 24.2437C4.46809 24.0796 4.3759 23.8571 4.3759 23.625C4.3759 23.3929 4.46809 23.1704 4.63218 23.0063C4.79628 22.8422 5.01884 22.75 5.2509 22.75V13.451C4.77001 13.117 4.39509 12.6519 4.17068 12.1111C3.94627 11.5703 3.88179 10.9764 3.9849 10.4L5.1249 4.89701C5.20493 4.50185 5.41949 4.14665 5.73202 3.89192C6.04454 3.6372 6.43571 3.49869 6.8389 3.50001H21.1639C21.9439 3.50001 22.6999 4.04301 22.8779 4.89601L24.0099 10.346C24.0449 10.546 24.0629 10.741 24.0629 10.937C24.0629 11.977 23.5449 12.897 22.7519 13.451L22.7509 22.75C23.2339 22.75 23.6259 23.142 23.6259 23.625C23.6264 23.74 23.6042 23.8539 23.5605 23.9603C23.5167 24.0666 23.4524 24.1632 23.3712 24.2446C23.2899 24.3259 23.1933 24.3903 23.0871 24.4342C22.9808 24.478 22.8669 24.5004 22.7519 24.5H5.2509ZM21.0009 19.25H7.0009V22.75H21.0009V19.25ZM19.2509 13.45C18.7398 13.8125 18.1275 14.0049 17.5009 14C16.8744 14.0044 16.2623 13.812 15.7509 13.45C15.2398 13.8125 14.6275 14.0049 14.0009 14C13.3744 14.0044 12.7623 13.812 12.2509 13.45C11.7398 13.8125 11.1275 14.0049 10.5009 14C9.87438 14.0044 9.26229 13.812 8.7509 13.45C8.24244 13.8179 7.62838 14.0109 7.0009 14V17.5H21.0009V14C20.3709 14 19.7869 13.817 19.2509 13.45ZM21.1639 5.25001H6.8389L5.7049 10.726C5.6949 10.796 5.6889 10.866 5.6889 10.937C5.6889 11.662 6.1819 12.25 7.0009 12.25C7.5469 12.25 8.1299 11.812 8.7509 10.937C9.3649 11.813 9.9479 12.25 10.5009 12.25C11.0539 12.25 11.6369 11.812 12.2509 10.937C12.8849 11.813 13.4709 12.25 14.0039 12.25C14.5389 12.25 15.1199 11.812 15.7499 10.937C16.3719 11.813 16.9559 12.25 17.5009 12.25C18.0459 12.25 18.6289 11.812 19.2509 10.937C19.8839 11.813 20.4679 12.25 21.0009 12.25C21.8009 12.25 22.3139 11.662 22.3139 10.937C22.3139 10.877 22.2979 10.732 22.2919 10.674L21.1639 5.25001Z" fill="#1A1C1F"/>
</g>
<defs>
<clipPath id="clip0_184_202">
<rect width="28" height="28" fill="white"/>
</clipPath>
</defs>
</svg>

<svg xmlns="http://www.w3.org/2000/svg" width="28" height="28" fill="none"><g clip-path="url(#a)"><path fill="#1A1C1F" fill-rule="evenodd" d="M5.25 24.5a.875.875 0 0 1 0-1.75v-9.299A3.06 3.06 0 0 1 3.986 10.4l1.14-5.503A1.74 1.74 0 0 1 6.839 3.5h14.325c.78 0 1.536.543 1.714 1.396l1.132 5.45q.053.299.053.591c0 1.04-.518 1.96-1.311 2.514l-.001 9.299a.875.875 0 0 1 0 1.75zM21 19.25H7v3.5h14zm-1.75-5.8a3 3 0 0 1-1.75.55 3 3 0 0 1-1.75-.55A3 3 0 0 1 14 14a3 3 0 0 1-1.75-.55 3 3 0 0 1-1.75.55 3 3 0 0 1-1.75-.55A2.9 2.9 0 0 1 7 14v3.5h14V14q-.945 0-1.75-.55m1.914-8.2H6.839l-1.134 5.476q-.015.105-.016.211c0 .725.493 1.313 1.312 1.313q.819 0 1.75-1.313.92 1.313 1.75 1.313t1.75-1.313q.952 1.313 1.753 1.313.802 0 1.746-1.313.934 1.313 1.75 1.313.819 0 1.75-1.313.951 1.313 1.75 1.313c.8 0 1.314-.588 1.314-1.313 0-.06-.016-.205-.022-.263z" clip-rule="evenodd"/></g><defs><clipPath id="a"><path fill="#fff" d="M0 0h28v28H0z"/></clipPath></defs></svg>
